icons/circle/48/distributor-logo-freebsd.svg

<svg xmlns="http://www.w3.org/2000/svg" viewBox="0 0 48 48">
 <defs>
  <linearGradient id="linearGradient3764" x1="1" x2="47" gradientUnits="userSpaceOnUse" gradientTransform="matrix(0,-1,1,0,-1.5e-6,47.999998)">
   <stop style="stop-color:#333;stop-opacity:1"/>
   <stop offset="1" style="stop-color:#3d3d3d;stop-opacity:1"/>
  </linearGradient>
  <radialGradient id="radialGradient4202" cx="24" cy="24" r="15" gradientUnits="userSpaceOnUse" gradientTransform="matrix(0.93333327,0,0,0.93333327,1.6000006,1.6000034)">
   <stop style="stop-color:#ee1412;stop-opacity:1"/>
   <stop offset="1" style="stop-color:#cd450f;stop-opacity:1"/>
  </radialGradient>
 </defs>
 <g>
  <path d="m 36.31 5 c 5.859 4.062 9.688 10.831 9.688 18.5 c 0 12.426 -10.07 22.5 -22.5 22.5 c -7.669 0 -14.438 -3.828 -18.5 -9.688 c 1.037 1.822 2.306 3.499 3.781 4.969 c 4.085 3.712 9.514 5.969 15.469 5.969 c 12.703 0 23 -10.298 23 -23 c 0 -5.954 -2.256 -11.384 -5.969 -15.469 c -1.469 -1.475 -3.147 -2.744 -4.969 -3.781 z m 4.969 3.781 c 3.854 4.113 6.219 9.637 6.219 15.719 c 0 12.703 -10.297 23 -23 23 c -6.081 0 -11.606 -2.364 -15.719 -6.219 c 4.16 4.144 9.883 6.719 16.219 6.719 c 12.703 0 23 -10.298 23 -23 c 0 -6.335 -2.575 -12.06 -6.719 -16.219 z" style="opacity:0.05"/>
  <path d="m 41.28 8.781 c 3.712 4.085 5.969 9.514 5.969 15.469 c 0 12.703 -10.297 23 -23 23 c -5.954 0 -11.384 -2.256 -15.469 -5.969 c 4.113 3.854 9.637 6.219 15.719 6.219 c 12.703 0 23 -10.298 23 -23 c 0 -6.081 -2.364 -11.606 -6.219 -15.719 z" style="opacity:0.1"/>
  <path d="m 31.25 2.375 c 8.615 3.154 14.75 11.417 14.75 21.13 c 0 12.426 -10.07 22.5 -22.5 22.5 c -9.708 0 -17.971 -6.135 -21.12 -14.75 a 23 23 0 0 0 44.875 -7 a 23 23 0 0 0 -16 -21.875 z" style="opacity:0.2"/>
 </g>
 <g transform="translate(0.015625,0.09375)">
  <path d="M 24,1 C 36.703,1 47,11.297 47,24 47,36.703 36.703,47 24,47 11.297,47 1,36.703 1,24 1,11.297 11.297,1 24,1 Z" style="fill:url(#linearGradient3764);fill-opacity:1"/>
 </g>
 <g>
  <path d="m 40.03 7.531 c 3.712 4.084 5.969 9.514 5.969 15.469 0 12.703 -10.297 23 -23 23 c -5.954 0 -11.384 -2.256 -15.469 -5.969 4.178 4.291 10.01 6.969 16.469 6.969 c 12.703 0 23 -10.298 23 -23 0 -6.462 -2.677 -12.291 -6.969 -16.469 z" style="opacity:0.1"/>
 </g>
 <path d="m 25 11 a 14 14 0 0 0 -7.473 2.166 c -2.486 -1.15 -5.066 -1.787 -6.225 -0.275 -0.863 1.126 0.249 3.056 1.746 4.852 A 14 14 0 0 0 11 25 14 14 0 0 0 25 39 14 14 0 0 0 39 25 14 14 0 0 0 36.955 17.738 c 1.495 -1.794 2.605 -3.722 1.742 -4.848 -1.16 -1.514 -3.748 -0.873 -6.238 0.281 A 14 14 0 0 0 25 11" style="fill:#000;opacity:0.1;fill-opacity:1;stroke:none"/>
 <path d="M 24 10 A 14 14 0 0 0 16.527 12.166 C 14.04 11.02 11.461 10.379 10.303 11.891 C 9.44 13.02 10.552 14.947 12.05 16.742 A 14 14 0 0 0 10 24 A 14 14 0 0 0 24 38 A 14 14 0 0 0 38 24 A 14 14 0 0 0 35.955 16.738 C 37.45 14.944 38.56 13.02 37.697 11.891 C 36.537 10.376 33.949 11.02 31.459 12.172 A 14 14 0 0 0 24 10 z" style="fill:url(#radialGradient4202);opacity:1;fill-opacity:1;stroke:none"/>
</svg>

<svg version="1.1" viewBox="0 0 48 48" xmlns="http://www.w3.org/2000/svg">
 <defs>
  <linearGradient id="bg" x1="1" x2="47" gradientTransform="matrix(0 -1 1 0 -1.5e-6 48)" gradientUnits="userSpaceOnUse">
   <stop style="stop-color:#3d3d3d" offset="0"/>
   <stop style="stop-color:#474747" offset="1"/>
  </linearGradient>
  <rG id="rG4202" cx="24" cy="24" r="15" gradientTransform="matrix(.933 0 0 .933 1.6 1.6)" gradientUnits="userSpaceOnUse">
   <stop style="stop-color:#e82d2b" offset="0"/>
   <stop style="stop-color:#dd4918" offset="1"/>
  </rG>
 </defs>
 <g>
  <path d="m36.3 5c5.86 4.06 9.69 10.8 9.69 18.5 0 12.4-10.1 22.5-22.5 22.5-7.67 0-14.4-3.83-18.5-9.69 1.04 1.82 2.31 3.5 3.78 4.97 4.08 3.71 9.51 5.97 15.5 5.97 12.7 0 23-10.3 23-23 0-5.95-2.26-11.4-5.97-15.5-1.47-1.48-3.15-2.74-4.97-3.78zm4.97 3.78c3.85 4.11 6.22 9.64 6.22 15.7 0 12.7-10.3 23-23 23-6.08 0-11.6-2.36-15.7-6.22 4.16 4.14 9.88 6.72 16.2 6.72 12.7 0 23-10.3 23-23 0-6.34-2.58-12.1-6.72-16.2z" style="opacity:.05"/>
  <path d="m41.3 8.78c3.71 4.08 5.97 9.51 5.97 15.5 0 12.7-10.3 23-23 23-5.95 0-11.4-2.26-15.5-5.97 4.11 3.85 9.64 6.22 15.7 6.22 12.7 0 23-10.3 23-23 0-6.08-2.36-11.6-6.22-15.7z" style="opacity:.1"/>
  <path d="m31.2 2.38c8.62 3.15 14.8 11.4 14.8 21.1 0 12.4-10.1 22.5-22.5 22.5-9.71 0-18-6.14-21.1-14.8a23 23 0 0 0 44.9-7 23 23 0 0 0-16-21.9z" style="opacity:.2"/>
 </g>
 <g transform="translate(.0156 .0938)">
  <path d="m24 1c12.7 0 23 10.3 23 23s-10.3 23-23 23-23-10.3-23-23 10.3-23 23-23z" style="fill:url(#bg)"/>
 </g>
 <g>
  <path d="m40 7.53c3.71 4.08 5.97 9.51 5.97 15.5 0 12.7-10.3 23-23 23-5.95 0-11.4-2.26-15.5-5.97 4.18 4.29 10 6.97 16.5 6.97 12.7 0 23-10.3 23-23 0-6.46-2.68-12.3-6.97-16.5z" style="opacity:.1"/>
 </g>
 <path d="m25 11a14 14 0 0 0-7.47 2.17c-2.49-1.15-5.07-1.79-6.22-0.275-0.863 1.13 0.249 3.06 1.75 4.85a14 14 0 0 0-2.05 7.26 14 14 0 0 0 14 14 14 14 0 0 0 14-14 14 14 0 0 0-2.04-7.26c1.5-1.79 2.6-3.72 1.74-4.85-1.16-1.51-3.75-0.873-6.24 0.281a14 14 0 0 0-7.46-2.17" style="opacity:.1"/>
 <path d="m24 10a14 14 0 0 0-7.47 2.17c-2.49-1.15-5.07-1.79-6.22-0.275-0.863 1.13 0.249 3.06 1.75 4.85a14 14 0 0 0-2.05 7.26 14 14 0 0 0 14 14 14 14 0 0 0 14-14 14 14 0 0 0-2.04-7.26c1.5-1.79 2.6-3.72 1.74-4.85-1.16-1.52-3.75-0.871-6.24 0.281a14 14 0 0 0-7.46-2.17z" style="fill:url(#rG4202)"/>
</svg>
